X: 32
M: C|
L: 1/8
K: G
V: 1
dcBc |\
d2d2 edef | g2g2 dcBA | cBAG F2G2 | A2D2 dcBc |\
d2d2 edef | g2 g2 dcBA | cBAG A2F2 | G4 :|
K: Dm
"Mineur"B2dB |\
d2Bf fedc | d2B2 B2Fd | d2Bf fedc | B4 B2Fd |\
d2Bf fedc | d2B2 B2Fd | d2Bg fedc | "_Da Capo"B4 |]
V: 2 clef=bass middle=d
g2g2 |\
gabg c'bc'a | gdBG bagf | edcB AdBG | defd g2g2 |
gabg c'bc'a | gdBG bagf | edcB cAdD | G4 :| g2g2 | gfef geag | fafd e2e2 |
ed^cd ed^cA | d2de fed2 | gfe2 agf2 | bab^c' d'2de | fabg agaA | "_Da Capo"defd |]
K: Dm
"Mineur"G2g2 |\
^f2d2 e2c2 | d2d'c' bd'bg | ^f=efg a^fg^c | de^fd G2g2 |
^f2d2 e2c2 | d2d'c' baga | b2c'2 d'2d2 | g4 |] B2b2 | b2dd' d'c'ba | bfdf B2b2 |
b2dd' d'c'ba | bfdf B2b2 | b2dd' d'c'ba | bfdf B2b2 | b2de f2F2 | "_Da Capo"B4 |]


